X: 7376
T: Clifton Road
R: jig
M: 6/8
K: Dmixolydian
A|:D2A AGA|ccA AGE|G2A cAG|AGE DEG|
D2A AGA|ccA AGE|Adc dAG|AGE DEG:|
AGA ccA|AdA cAG|d2A cAG|AGE DEG|
AAA AGA|ccA AGE|Adc dAG|AGE DEG|
AGA ccA|AdA cAG|d2A cAG|AGE DEG|
AGA ccA|AGA ded|edg edc|dcA AGE||

